X: 20253
M: C
L: 1/8
K: F
|:\
fgag f2cf | gfga
baga |\
fgag f2Ac | BAGA Bcde |\
fgag f2cf | gfga bagb |\
afge fdec | dBcA BAG"^D.C."B |]


